X: 98
T: Jolly is the Miller
N: (Game Song. For directions, see page 9.)
O: English.
%R: air, march
B: "The Everyday Song Book", 1927
F: http://www.library.pitt.edu/happybirthday/pdf/The_Everyday_Song_Book.pdf
Z: 2017 John Chambers <jc:trillian.mit.edu>
M: 4/4
L: 1/8
K: A
% - - - - - - - - - - - - - - - - - - - - - - - - - - - - -
[|\
A A A A A2 C D | E2 E> F E3 c | c2 c2
w: Jol-ly is the mil-ler who lives by the mill, The wheel goes
%
c2 A> B | c2 B2 B2 (cB) | A2 A A A> A C D |
w: 'round with a right good will; One* hand in the hop-per and the
%
E E E> E E3 A | c2 e2 e e A B | c2 B2 A2 z2 |]
w: oth-er in the sack, The right steps for-ward and the left steps back.
% - - - - - - - - - - - - - - - - - - - - - - - - - - - - -
